src/assets/mh-icons/Lance_Rank_01.svg

<?xml version="1.0" encoding="UTF-8" standalone="no"?>
<svg
   width="100%"
   height="100%"
   viewBox="0 0 64 64"
   version="1.1"
   xml:space="preserve"
   style="fill-rule:evenodd;clip-rule:evenodd;stroke-linejoin:round;stroke-miterlimit:2;"
   id="svg14974"
   sodipodi:docname="Lance_Rank_01.svg"
   inkscape:version="1.2.2 (732a01da63, 2022-12-09)"
   xmlns:inkscape="http://www.inkscape.org/namespaces/inkscape"
   xmlns:sodipodi="http://sodipodi.sourceforge.net/DTD/sodipodi-0.dtd"
   xmlns="http://www.w3.org/2000/svg"
   xmlns:svg="http://www.w3.org/2000/svg"><defs
   id="defs14978">
        
    
            
        
                
                
                
            </defs><sodipodi:namedview
   id="namedview14976"
   pagecolor="#505050"
   bordercolor="#eeeeee"
   borderopacity="1"
   inkscape:showpageshadow="0"
   inkscape:pageopacity="0"
   inkscape:pagecheckerboard="0"
   inkscape:deskcolor="#505050"
   showgrid="false"
   inkscape:zoom="16.046875"
   inkscape:cx="32.062317"
   inkscape:cy="31.968841"
   inkscape:window-width="3440"
   inkscape:window-height="1377"
   inkscape:window-x="-8"
   inkscape:window-y="-8"
   inkscape:window-maximized="1"
   inkscape:current-layer="svg14974" />
    <path
   id="background"
   style="fill-opacity:0.76;fill:none;stroke:#000000;stroke-opacity:1;stroke-width:4;stroke-dasharray:none"
   d="M 18 5 C 18 5 13.999998 33.000004 12 37 C 11.686 37.627999 11.322593 38.304001 10.933594 39 C 10.377594 39.992999 9.7697807 41.020001 9.1757812 42 C 7.5337829 44.699997 6 47 6 47 C 6 47 6.000001 48 7 48 L 16 48 L 16 50 L 16 59 L 20 59 L 20 50 L 20 48 L 29 48 C 29.999999 48 30 47 30 47 C 30 47 28.466217 44.699997 26.824219 42 C 26.229219 41.020001 25.622406 39.991999 25.066406 39 C 24.677407 38.304001 24.314 37.627999 24 37 C 22.000002 33.000004 18 5 18 5 z M 41 14 L 38 15.5 L 37 16 L 31 19 L 31 26 L 34 29 L 34 45 L 37 48 L 38 49 L 41 52 L 43 52 L 44 52 L 49 52 L 56 45 L 56 29 L 59 26 L 59 19 L 49 14 L 44 14 L 43 14 L 41 14 z " />
<g
   transform="matrix(1,0,0,1,0,-256)"
   id="g19100">
        <g
   transform="matrix(1,0,0,1,-256,-704)"
   id="g19098">
            <g
   id="g19096">
                <path
   id="base"
   d="m 300,974 v 38 h -3 l -4,-4 v -32 l 4,-2 z m -24,34 h -4 v 2 h 4 z m 5.066,-9 c 0.556,0.992 1.164,2.02 1.759,3 h -17.65 c 0.594,-0.98 1.203,-2.007 1.759,-3 z M 311,979 h -8 v 8 h 8 z"
   style="display:inline;fill:#1f1f1f;fill-opacity:1"
   inkscape:label="base" />
                <path
   id="path19092"
   d="M299,974L299,1012L297,1012L294,1009L294,975.5L297,974L299,974Z"
   style="fill:rgb(123,122,122);" />
                <path
   id="path19094"
   d="M276,1010L272,1010L272,1019L276,1019L276,1010ZM300,974L305,974L315,979L315,986L312,989L312,1005L305,1012L300,1012L300,974ZM282.825,1002C284.467,1004.7 286,1007 286,1007C286,1007 286,1008 285,1008L263,1008C262,1008 262,1007 262,1007C262,1007 263.533,1004.7 265.175,1002L282.825,1002ZM293,976L293,1008L290,1005L290,989L287,986L287,979L293,976ZM266.934,999C267.323,998.304 267.686,997.628 268,997C270,993 274,965 274,965C274,965 278,993 280,997C280.314,997.628 280.677,998.304 281.066,999L266.934,999ZM307,980.879L308.414,979.464C309,978.879 309.95,978.879 310.536,979.464C311.121,980.05 311.121,981 310.536,981.586L309.121,983L310.536,984.414C311.121,985 311.121,985.95 310.536,986.536C309.95,987.121 309,987.121 308.414,986.536L307,985.121L305.586,986.536C305,987.121 304.05,987.121 303.464,986.536C302.879,985.95 302.879,985 303.464,984.414L304.879,983L303.464,981.586C302.879,981 302.879,980.05 303.464,979.464C304.05,978.879 305,978.879 305.586,979.464L307,980.879Z"
   style="fill:rgb(181,181,181);" />
            </g>
        </g>
    </g></svg>

<?xml version="1.0" encoding="UTF-8" standalone="no"?>
<svg
   width="100%"
   height="100%"
   viewBox="0 0 64 64"
   version="1.1"
   xml:space="preserve"
   style="fill-rule:evenodd;clip-rule:evenodd;stroke-linejoin:round;stroke-miterlimit:2;"
   id="svg14974"
   sodipodi:docname="Lance_Rank_01.svg"
   inkscape:version="1.2.2 (732a01da63, 2022-12-09)"
   xmlns:inkscape="http://www.inkscape.org/namespaces/inkscape"
   xmlns:sodipodi="http://sodipodi.sourceforge.net/DTD/sodipodi-0.dtd"
   xmlns="http://www.w3.org/2000/svg"
   xmlns:svg="http://www.w3.org/2000/svg"><defs
   id="defs14978">
        
    
            
        
                
                
                
            </defs><sodipodi:namedview
   id="namedview14976"
   pagecolor="#505050"
   bordercolor="#eeeeee"
   borderopacity="1"
   inkscape:showpageshadow="0"
   inkscape:pageopacity="0"
   inkscape:pagecheckerboard="0"
   inkscape:deskcolor="#505050"
   showgrid="false"
   inkscape:zoom="16.046875"
   inkscape:cx="32"
   inkscape:cy="31.968841"
   inkscape:window-width="3440"
   inkscape:window-height="1377"
   inkscape:window-x="-8"
   inkscape:window-y="-8"
   inkscape:window-maximized="1"
   inkscape:current-layer="svg14974" />
    <path
   id="background"
   style="fill-opacity:0.76;fill:none;stroke:#000000;stroke-opacity:1;stroke-width:4;stroke-dasharray:none"
   d="M 18 5 C 18 5 13.999998 33.000004 12 37 C 11.686 37.627999 11.322593 38.304001 10.933594 39 C 10.377594 39.992999 9.7697807 41.020001 9.1757812 42 C 7.5337829 44.699997 6 47 6 47 C 6 47 6.000001 48 7 48 L 16 48 L 16 50 L 16 59 L 20 59 L 20 50 L 20 48 L 29 48 C 29.999999 48 30 47 30 47 C 30 47 28.466217 44.699997 26.824219 42 C 26.229219 41.020001 25.622406 39.991999 25.066406 39 C 24.677407 38.304001 24.314 37.627999 24 37 C 22.000002 33.000004 18 5 18 5 z M 41 14 L 38 15.5 L 37 16 L 31 19 L 31 26 L 34 29 L 34 45 L 37 48 L 38 49 L 41 52 L 43 52 L 44 52 L 49 52 L 56 45 L 56 29 L 59 26 L 59 19 L 49 14 L 44 14 L 43 14 L 41 14 z " />
<g
   transform="matrix(1,0,0,1,0,-256)"
   id="g19100">
        <g
   transform="matrix(1,0,0,1,-256,-704)"
   id="g19098">
            <g
   id="g19096">
                <path
   id="path19090"
   d="M300,974L300,1012L297,1012L293,1008L293,976L297,974L300,974ZM276,1008L272,1008L272,1010L276,1010L276,1008ZM281.066,999C281.622,999.992 282.23,1001.02 282.825,1002L265.175,1002C265.769,1001.02 266.378,999.993 266.934,999L281.066,999ZM311,979L303,979L303,987L311,987L311,979Z"
   style="fill-opacity:1;fill:#1f1f1f" />
                <path
   id="path19092"
   d="M299,974L299,1012L297,1012L294,1009L294,975.5L297,974L299,974Z"
   style="fill:rgb(123,122,122);" />
                <path
   id="path19094"
   d="M276,1010L272,1010L272,1019L276,1019L276,1010ZM300,974L305,974L315,979L315,986L312,989L312,1005L305,1012L300,1012L300,974ZM282.825,1002C284.467,1004.7 286,1007 286,1007C286,1007 286,1008 285,1008L263,1008C262,1008 262,1007 262,1007C262,1007 263.533,1004.7 265.175,1002L282.825,1002ZM293,976L293,1008L290,1005L290,989L287,986L287,979L293,976ZM266.934,999C267.323,998.304 267.686,997.628 268,997C270,993 274,965 274,965C274,965 278,993 280,997C280.314,997.628 280.677,998.304 281.066,999L266.934,999ZM307,980.879L308.414,979.464C309,978.879 309.95,978.879 310.536,979.464C311.121,980.05 311.121,981 310.536,981.586L309.121,983L310.536,984.414C311.121,985 311.121,985.95 310.536,986.536C309.95,987.121 309,987.121 308.414,986.536L307,985.121L305.586,986.536C305,987.121 304.05,987.121 303.464,986.536C302.879,985.95 302.879,985 303.464,984.414L304.879,983L303.464,981.586C302.879,981 302.879,980.05 303.464,979.464C304.05,978.879 305,978.879 305.586,979.464L307,980.879Z"
   style="fill:rgb(181,181,181);" />
            </g>
        </g>
    </g></svg>
